X:1
T:Veneto, 87.87 D
T:Veneto, 87.87 D
T:Charles Spurgeon Brown, 1899
T:Public Domain Courtesy of the Cyber Hymnal™
C:Charles Spurgeon Brown, 1899
Z:Public Domain
Z:Courtesy of the Cyber Hymnal™
%%score ( 1 2 ) ( 3 4 )
L:1/8
Q:1/4=97
M:6/8
K:D
V:1 treble 
V:2 treble 
V:3 bass 
V:4 bass 
V:1
 [DF][DF][DF] [DF][DE]D | [DF]3 [DA]3 | [DB][DB][DB] [DA][CG][DF] | [CE]6 | %4
 [DF][DF][DF] [DF][DE]D | [DF]3 [DA]3 | [DB][B,G][DB] [DA][CG][CE] | D6 | %8
 [Fd][Fd][Fd] [Gd][Gc][GB] | [FA]3 [DF]3 | [DB][DB][DB] [DA][CG][DF] | [CE]6 | %12
 [DF][DE]D [DF][DE]D | [DF]3 [DA]3 | [DB][B,G][DB] [DA][CG][CE] | D6 |] %16
V:2
 x5 D | x6 | x6 | x6 | x5 D | x6 | x6 | D6 | x6 | x6 | x6 | x6 | x2 D x D x | x6 | x6 | D6 |] %16
V:3
 [D,A,][D,A,][D,A,] [D,A,][D,G,][D,F,] | [D,A,]3 [D,F,]3 | G,G,G, [F,A,][E,A,][D,A,] | [A,,A,]6 | %4
 [D,A,][D,A,][D,A,] [D,A,][D,G,][D,F,] | [D,A,]3 [D,F,]3 | %6
 [G,,G,][G,,D,][G,,G,] [A,,F,][A,,E,][A,,G,] | [D,F,]6 | [D,A,][D,A,][D,A,] [D,B,][D,B,][D,B,] | %9
 [D,D]3 [D,A,]3 | G,G,G, [F,A,][E,A,][D,A,] | [A,,A,]6 | [D,A,][D,G,][D,F,] [D,A,][D,G,][D,F,] | %13
 [D,A,]3 [D,F,]3 | [G,,G,][G,,D,][G,,G,] [A,,F,][A,,E,][A,,G,] | [D,F,]6 |] %16
V:4
 x6 | x6 | G,G,G, x3 | x6 | x6 | x6 | x6 | x6 | x6 | x6 | G,G,G, x3 | x6 | x6 | x6 | x6 | x6 |] %16

